src/assets/vectors/home.svg

<svg id="SvgjsSvg1036" width="14" height="17" xmlns="http://www.w3.org/2000/svg" version="1.1" xmlns:xlink="http://www.w3.org/1999/xlink" xmlns:svgjs="http://svgjs.com/svgjs" viewBox="0 0 14 17"><title>Shape 8</title><desc>Created with Avocode.</desc><defs id="SvgjsDefs1037"></defs><path id="SvgjsPath1038" d="M146 190.002H142C141.448 190.002 141 189.55700000000002 141 189.007V184.035H139V189.007C139 189.55700000000002 138.552 190.002 138 190.002H134C133.448 190.002 133 189.55700000000002 133 189.007V181.809C133 181.064 133.303 180.33599999999998 133.832 179.81L139.293 174.38C139.684 173.99099999999999 140.316 173.99099999999999 140.707 174.38L146.168 179.811C146.697 180.336 147 181.064 147 181.809V189.007C147 189.55700000000002 146.552 190.002 146 190.002ZM143 188.013H145V181.809C145 181.589 144.911 181.373 144.754 181.219L140 176.48999999999998L135.246 181.218C135.089 181.373 135 181.589 135 181.809V188.013H137V183.04C137 182.48999999999998 137.448 182.045 138 182.045H142C142.552 182.045 143 182.48999999999998 143 183.04Z " fill="#ff8400" fill-opacity="1" transform="matrix(1,0,0,1,-133,-174)"></path></svg>

<svg xmlns="http://www.w3.org/2000/svg" width="14" height="15.906" viewBox="0 0 14 15.906">
  <path d="M146,190h-4a1,1,0,0,1-1-1v-4.972h-2v4.972a1,1,0,0,1-1,1h-4a1,1,0,0,1-1-1v-7.2a2.837,2.837,0,0,1,.832-2l5.461-5.43a1,1,0,0,1,1.414,0l5.461,5.431a2.833,2.833,0,0,1,.832,2v7.2A1,1,0,0,1,146,190Zm-3-1.989h2v-6.2a0.832,0.832,0,0,0-.246-0.59L140,176.49l-4.754,4.728a0.836,0.836,0,0,0-.246.591v6.2h2V183.04a1,1,0,0,1,1-1h4a1,1,0,0,1,1,1v4.973Z" transform="translate(-133 -174.094)"/>
</svg>
